themes/Clearlooks/arrow-left-selected.svg

<svg height="16" width="16" xmlns="http://www.w3.org/2000/svg"><g fill="#fff" transform="matrix(-1 0 0 1 17.414 0)"><path d="m6.707 2.293-1.414 1.414 4.293 4.293-4.293 4.293 1.414 1.414 5.707-5.707z"/><path d="m6 13h-1v1h1zm0-11h-1v1h1z"/><path d="m6 2c-.554 0-1 .446-1 1s.446 1 1 1 1-.446 1-1-.446-1-1-1zm0 10c-.554 0-1 .446-1 1s.446 1 1 1 1-.446 1-1-.446-1-1-1z"/></g></svg>

<?xml version="1.0" encoding="UTF-8" standalone="no"?>
<svg
   sodipodi:docname="arrow-left-selected.svg"
   id="svg10"
   version="1.1"
   height="16"
   width="16"
   inkscape:version="1.1.2 (0a00cf5339, 2022-02-04, custom)"
   xmlns:inkscape="http://www.inkscape.org/namespaces/inkscape"
   xmlns:sodipodi="http://sodipodi.sourceforge.net/DTD/sodipodi-0.dtd"
   xmlns="http://www.w3.org/2000/svg"
   xmlns:svg="http://www.w3.org/2000/svg"
   xmlns:rdf="http://www.w3.org/1999/02/22-rdf-syntax-ns#"
   xmlns:cc="http://creativecommons.org/ns#"
   xmlns:dc="http://purl.org/dc/elements/1.1/">
  <metadata
     id="metadata16">
    <rdf:RDF>
      <cc:Work
         rdf:about="">
        <dc:format>image/svg+xml</dc:format>
        <dc:type
           rdf:resource="http://purl.org/dc/dcmitype/StillImage" />
      </cc:Work>
    </rdf:RDF>
  </metadata>
  <defs
     id="defs14" />
  <sodipodi:namedview
     pagecolor="#ffffff"
     bordercolor="#666666"
     borderopacity="1"
     objecttolerance="10"
     gridtolerance="10"
     guidetolerance="10"
     inkscape:pageopacity="0"
     inkscape:pageshadow="2"
     inkscape:window-width="1869"
     inkscape:window-height="999"
     id="namedview12"
     showgrid="false"
     inkscape:zoom="36.6875"
     inkscape:cx="7.9863714"
     inkscape:cy="7.9863714"
     inkscape:window-x="0"
     inkscape:window-y="0"
     inkscape:window-maximized="1"
     inkscape:current-layer="svg10"
     inkscape:document-rotation="0"
     inkscape:pagecheckerboard="0" />
  <g
     color="#000000"
     fill="#ffffff"
     id="g8"
     transform="matrix(-1,0,0,1,17.414,0)">
    <path
       d="M 6.707,2.293 5.293,3.707 9.586,8 5.293,12.293 6.707,13.707 12.414,8 Z"
       style="line-height:normal;font-variant-ligatures:normal;font-variant-position:normal;font-variant-caps:normal;font-variant-numeric:normal;font-variant-alternates:normal;font-feature-settings:normal;text-indent:0;text-align:start;text-decoration-line:none;text-decoration-style:solid;text-decoration-color:#000000;text-transform:none;text-orientation:mixed;white-space:normal;shape-padding:0;isolation:auto;mix-blend-mode:normal;solid-color:#000000;solid-opacity:1;marker:none"
       font-weight="400"
       font-family="sans-serif"
       overflow="visible"
       id="path2" />
    <path
       d="M 6,13 H 5 v 1 H 6 Z M 6,2 H 5 v 1 h 1 z"
       style="marker:none"
       overflow="visible"
       id="path4" />
    <path
       d="M 6,2 C 5.446,2 5,2.446 5,3 5,3.554 5.446,4 6,4 6.554,4 7,3.554 7,3 7,2.446 6.554,2 6,2 Z m 0,10 c -0.554,0 -1,0.446 -1,1 0,0.554 0.446,1 1,1 0.554,0 1,-0.446 1,-1 0,-0.554 -0.446,-1 -1,-1 z"
       style="marker:none"
       overflow="visible"
       id="path6" />
  </g>
</svg>
